X:800
T:Well Done, Brenda
C:Colin Hume, 1987
L:1/4
M:2/2
S:Colin Hume's website,  colinhume.com  - chords can also be printed below the stave.
Q:1/2=112
H:For Brenda Godrich
K:D
P:A
|: A/ | "D"dA "/"dA | "Bm"BB "/"B3/F/ | "Em"GG "A7"G/B/A/G/ | "D"FA "A/C#"EF/E/ | "Bm"DD "/"d3/c/ |
"G"BG "/"G3/F/ |1 "E7"EE "/"e3/d/ | "A"cA "A7"A3/ :|2 "A7"EE "/"ec | "D"d2- "D7"d ||
P:B
|:A | "G"B2 "/"d2 | "A"cA- "/"A3/A/ | "G"BG "/"G3/B/ | "A"cA "/"AA | "G"B2 "Bm/G#"f2 |
"A"eA- "/"AA |1 "Em"BG "A7"EC | "D"D2- "/"D :|2 "Em"BG "A7"fe | "D"d2- "/"d |]

